icons/svg/archive.svg

﻿<?xml version="1.0" encoding="utf-8"?>
<!DOCTYPE svg PUBLIC "-//W3C//DTD SVG 1.1//EN" "http://www.w3.org/Graphics/SVG/1.1/DTD/svg11.dtd">
<svg xmlns="http://www.w3.org/2000/svg" xmlns:xlink="http://www.w3.org/1999/xlink" version="1.1" baseProfile="full" width="24" height="24" viewBox="0 0 24.00 24.00" enable-background="new 0 0 24.00 24.00" xml:space="preserve">
	<path fill="#000000" fill-opacity="1" stroke-width="0.2" stroke-linejoin="round" d="M 3,3L 21,3L 21,7L 3,7L 3,3 Z M 4,8.00001L 20,8.00001L 20,21L 4,21L 4,8.00001 Z M 9.5,11C 9.22386,11 9,11.2239 9,11.5L 9,13L 15,13L 15,11.5C 15,11.2239 14.7761,11 14.5,11L 9.5,11 Z "/>
</svg>

<svg xmlns="http://www.w3.org/2000/svg" version="1.1" baseProfile="full" width="24" height="24" viewBox="0 0 24.00 24.00" xml:space="preserve"><path fill="#000" fill-opacity="1" stroke-width=".2" stroke-linejoin="round" d="M3 3h18v4H3V3zm1 5h16v13H4V8zm5.5 3c-.276 0-.5.224-.5.5V13h6v-1.5c0-.276-.224-.5-.5-.5h-5z"/></svg>
